!!!!SEGMENT: pl-kozmzk--mzk-m-346--006_walczynski-franciszek-cantantibus-organis-andantino.krn
!!!id: 18xx:2801
!!!COM: Walczyński, Franciszek
!!!OTL: Cantantibus organis – Andantino
!!!PDT: 1898
!!!SMS-siglum: PL-KOZmzk
!!!SMS-shelfmark: mzk/m/346
!!!NIFC-rismID: 1001109067
!!!URL-scan: https://repozytorium.nifc.pl/islandora/object/pl-kozmzk%3A7453/datastream/PDF/view
!!!ONB-nifc:
!!!SMS-variant:
!!!SMS-altvar:
!!!OMD:Andantino.
**kern	**kern	**dynam
*part2	*part1	*part1
*staff2	*staff1	*
*I"[Organo]	*	*
*clefF4	*clefG2	*
*k[]	*k[]	*
*M2/4	*M2/4	*
=1	=1	=1
*^	*^	*
2rG	2rBB	(8a/L	2r	p
.	.	16b/L	.	.
.	.	16cc/JJ	.	.
.	.	8b/L	.	.
.	.	8a/J	.	.
=2	=2	=2	=2	=2
2rG	2rBB	2g#X/	8r	.
.	.	.	(8f\L	.
.	.	.	8e\	.
.	.	.	8d\J	.
=3	=3	=3	=3	=3
(8c/L	2r	8a/L	4.e\	.
8G#X/	.	8b/	.	.
8A/	.	8cc/	.	.
8F/J	.	8dd/J	8a\	.
=4	=4	=4	=4	=4
2E/)	2r	2ee/)	2g#X\)	.
=5	=5	=5	=5	=5
2rc	(<8EE\L	2r	2r	.
.	16GG#X\L	.	.	.
.	16BB\JJ	.	.	.
.	8E\L	.	.	.
.	8D\J)	.	.	.
=6	=6	=6	=6	=6
2rg	(8C\L	(4a/	4e\	pp
.	8c\J	.	.	.
.	8d\L	8b-X/L	4f\	.
.	8B-X\J);>	8dd;/J)	.	.
=7	=7	=7	=7	=7
!	!	!	!LO:TX:t=P:problem:pf się nie wyświetla	!
2r	2r	(8cc/L	2r	pf
.	.	16bn/L	.	.
.	.	16a/JJ	.	.
.	.	8f/L	.	.
.	.	8e/J)	.	.
=8	=8	=8	=8	=8
!	!LO:TX:b:i:t=Ped.	!	!	!
(8E/L	[2AA\	([2a/	[2c\	pp
16D#X/L	.	.	.	.
16E/JJ	.	.	.	.
8G/L	.	.	.	.
8F#X/J	.	.	.	.
=9	=9	=9	=9	=9
4E/	2AA\_	4.a/]	2c\_	.
4E-X/	.	.	.	.
!	!	!LO:TX:b:i:t=rit.	!	!
.	.	8gn/	.	.
=10	=10	=10	=10	=10
2D/)	2AA;\]	2f#X;/)	2c\]	>]
*v	*v	*	*	*
*	*v	*v	*
=11||	=11||	=11||
*k[f#]	*k[f#]	*
*M2/4	*M2/4	*
*^	*^	*
2rG	2rBB	8dd/L	2rB	p
.	.	8b/	.	.
.	.	8g/	.	.
.	.	8a/J	.	.
*	*	*v	*v	*
=12	=12	=12	=12
8r	2r	(2d/	.
(8c/L 8A/	.	.	.
8B/ 8G/	.	.	.
(8A/J 8F#/)	.	.	.
!!LO:LB:g=original
=13	=13	=13	=13
8B/ 8G/)	2r	8d/L)	.
8rc	.	(>16e/L	<
.	.	16f#/JJ	.
4rc	.	8g/L	.
.	.	16a/L	.
.	.	16b/JJ	[[
=14	=14	=14	=14
*	*	*	*^
*	*	*^	*	*
!	!	!	!	!LO:DY:b=2	!
8rA	8rAA	4.a/	8r	fp	fp
!	!LO:TX:b:i:t=Ped.	!	!	!	!
[4.A/	(8AA\L	.	(8c#X\L	.	.
.	8BB\	.	8d\	.	.
.	8C#X\J	8g/)	8e\J	.	.
*	*	*	*	*v	*v
=15	=15	=15	=15	=15
4A/]	8D\L	(8f#/L	2d\)	.
.	8Cn\	16e/L	.	.
.	.	16f#/JJ	.	.
4G/	8BB\	8g/L	.	.
.	8BB-X\J)	[8dd/J)	.	.
=16	=16	=16	=16	=16
(2d/	(4AA\	(8dd/L]	4f#\	.
.	.	8cc/J	.	.
.	8GG\L	4b/	[4g\	.
.	8FFn\J	.	.	.
=17	=17	=17	=17	=17
4c/	8EE\L	4cc/	4g\]	.
.	8EE-X\	.	.	>
8d/L	8DD\	8b/L	4f#\	.
8c/J	8D\J	8a/J	.	.
=18	=18	=18	=18	=18
2B/)	2GG\);	2g;/)	2g\	]]
=19	=19	=19	=19	=19
!	!	!LO:TX:t=P:problem:pf się nie wyświetla	!	!
2r	2r	(8b/L	2r	pf
.	.	8g/	.	.
.	.	8e/	.	.
.	.	8f#/J	.	.
*	*	*v	*v	*
=20	=20	=20	=20
8r	2r	[2B/)	.
(8A/L 8F#/	.	.	.
8G/ 8E/	.	.	.
8F#/J 8D#X/	.	.	.
=21	=21	=21	=21
8G/ 8E/)	2r	8B/L]	.
8r	.	(16c#X/L	<
.	.	16d#X/JJ	.
4r	.	8e/L	.
.	.	16f#/L	.
.	.	16g/JJ	[[
=22	=22	=22	=22
8r	2r	[2f#/)	.
(8A#X/L 8F#/	.	.	.
8B/ 8G#X/	.	.	.
8c#X/J 8A#/	.	.	.
=23	=23	=23	=23
8d/ 8B/)	2r	8f#/L]	.
8r	.	16g#X/L	<
.	.	16a#X/JJ	.
4r	.	8b/L	.
.	.	16cc#X/L	.
.	.	16dd#X/JJ	[
=24	=24	=24	=24
*	*	*^	*
2r	2r	4ee/	2r	f
.	.	8ccn/L	.	.
.	.	8a/J	.	.
!!LO:LB:g=original
=25	=25	=25	=25	=25
!	!	!	!	!LO:DY:a
8r	4r	(4b/	4.g\	.p
4d^/	.	.	.	.
!	!LO:TX:b:i:t=Ped.	!	!	!LO:DY:b=2:rj
.	8D\L	4a/	.	p
8c/	8DD\J	.	8f#\	.
=26	=26	=26	=26	=26
2B/	(8EE\L	4g/	4e\	.
.	16FF#\L	.	.	.
.	16GG\JJ	.	.	.
.	4AA\	4f#/	4d#X\	>
=27	=27	=27	=27	=27
([2G/	4BB\	2e/	4e\	.
.	4C#X\	.	[4A\	.
=28	=28	=28	=28	=28
8G/L]	2D;\)	2d;/)	2A\]	.
16F#/L	.	.	.	.
16E/JJ	.	.	.	.
4F#;/)	.	.	.	]]
=29	=29	=29	=29	=29
2r	2r	(8dd/L	2r	pp
.	.	8b/	.	.
.	.	8g/	.	.
.	.	8a/J	.	.
*	*	*v	*v	*
=30	=30	=30	=30
8r	2r	[2d/	.
(8c/L 8A/	.	.	.
8B/ 8G/	.	.	.
8A/J 8F#/	.	.	.
=31	=31	=31	=31
8B/ 8G/)	2r	8d/L])	.
8r	.	(>16e/L	<
.	.	16f#/JJ	.
4r	.	8g/L	.
.	.	16a/L	.
.	.	16b/JJ	[[
=32	=32	=32	=32
*	*	*^	*
8r	8ryy	4a/	8r	p >
8F#/	8D\	.	16d\LL	.
.	.	.	16c\JJ	.
4G/	4E;\	4g;/)	4B\	]]
=33	=33	=33	=33	=33
!	!LO:TX:b:i:t=Ped.	!	!	!LO:DY:b=2:rj
2r	(8DD\L	2r	2r	pp
.	16EE\L	.	.	.
.	16FF#\JJ	.	.	.
.	8GG\L	.	.	.
.	16AA\L	.	.	.
.	16BB\JJ	.	.	.
=34	=34	=34	=34	=34
!	!	!LO:TX:t=P:problem:pf się nie wyświetla	!	!
8r	8AA\L)	8r	8ryy	pf >
8c/	8DD'\J	8a/	8f#\	.
4B/	[4GG\	[4g/	4g\	]]
=35	=35	=35	=35	=35
!	!	!LO:TX:a:i:t=rall.	!	!
(4Fn/	2GG\_	2g/_	(8d\L	>
.	.	.	16c\L	.
.	.	.	16B\JJ	.
4E/	.	.	8d\L	.
.	.	.	8c\J	.
=36	=36	=36	=36	=36
4E-X/	2GG;\]	2g;/]	8G\L	.
.	.	.	8A\J	.
4D/);	.	.	4B;\)	]
*v	*v	*	*	*
*	*v	*v	*
==	==	==
*-	*-	*-
!!!system-decoration: {(s1,s2)}
!!!ENC: Andrzej Gręziak
!!!END: 2021-07-27
!!!EED: Andrzej Borzym
!!!EST: 2021-08-09
!!!RDF**kern: > = above
!!!RDF**kern: < = below
